X:1
T:Title
%%score { ( 1 3 ) | ( 2 4 ) }
L:1/8
Q:1/4=136
M:4/4
K:F
V:1 treble nm="Grand Piano"
V:3 treble 
V:2 bass 
V:4 bass 
V:1
 [A,CF]4 [B,EG]2 [CFA]2 | [DFB]4 [Fc]2 [Fd]2 | c2 z2 z4 | [CFA]2 [EG]2 [A,F]4 | %4
w: Frances~R.~Havergal * *||||
 [B,DF]4[K:bass] [F,CE]2 [F,B,D]2 | [F,C]4[K:treble] [A,CF]2 [CFA]2 | [Cc]4 [DB]2 [DA]2 | [CEG]8 | %8
w: ||||
 [A,CF]4 [B,EG]2 [CFA]2 | [DFB]4 [C_Ec]2 [Dd]2 | c2 z2 z4 | c2 z2 z4 | %12
w: ||||
 [B,DF]4[K:bass] [F,CE]2 [F,B,D]2 | [F,A,C]4[K:treble] F2 A2 | [Ec]4 [EG]2 [EA]2 | [A,F]8 | %16
w: ||||
 [Ac]4 [Ad]2 [Ae]2 | [Ff]4 [Ge]2 [Gd]2 | c2 G2 A2 B2 | A2 G2 F4 | d4 c2 B2 | A4 G2 F2 | F4 E2 F2 | %23
w: |||||||
 [EG]8 | F4 A2 [Ac]2 | [Ff]4 [Ge]2 [Gd]2 | c2 G2 A2 B2 | A2 G2 [A,F]4 | %28
w: |||||
 [B,DF]4[K:bass] [F,CE]2 [F,B,D]2 | [F,A,C]4[K:treble] F2 A2 | [Ec]4 [EG]2 [EA]2 | F8 |] %32
w: ||||
V:2
 F,4 F,2 F,2 | B,,4 [B,,A,]2 [B,,B,]2 | z2 G2 C,2 C,2 | z2 B,2 F,4 | B,,4 B,,2 B,,2 | %5
 A,,4 F,,2 F,,2 | [A,,F,]4 [B,,F,]2 [B,,F,]2 | C,8 | F,4 F,2 F,2 | B,,4 B,,2 [B,,B,]2 | %10
 z2[K:treble] f2[K:bass] [B,,B,]2 [B,,B,]2 | z2 A2 F,4 | B,,4 B,,2 B,,2 | C,4 F,2 A,2 | %14
 [C,G,]4 [C,B,]2 [C,C]2 | [F,,F,]8 | [F,C]4 [F,C]2 [F,C]2 | [F,D]4 [F,B,]2 [F,B,]2 | %18
 [F,B,E]4 [F,CF]2 [F,DF]2 | [F,F]4 z4 | [B,F]4 [A,CF]2[K:bass] [G,CE]2 | %21
 [F,CF]4 [F,B,C]2 [F,A,C]2 | [D,A,D]4 [D,A,D]2 [D,A,D]2 | [C,C]8 | [F,A,]4 [F,CF]2 [F,F]2 | %25
 [F,D]4 [F,B,]2 [F,B,]2 | [F,B,E]4[K:treble] [CF]2 [DF]2 | C2 z2 z4 | B,,4 B,,2 B,,2 | %29
 C,4 F,2 A,2 | [C,G,]4 [C,B,]2 [C,C]2 | [F,A,]8 |] %32
V:3
 x8 | x8 | E4 [CFA]2 [CGB]2 | x8 | x4[K:bass] x4 | x4[K:treble] x4 | x8 | x8 | x8 | x8 | %10
 [CF]4 [Fe]2 [Fd]2 | [CF]4 [A,F]4 | x4[K:bass] x4 | x4[K:treble] x4 | x8 | x8 | x8 | x8 | x8 | x8 | %20
 x8 | x8 | x8 | x8 | x8 | x8 | x8 | x8 | x4[K:bass] x4 | x4[K:treble] x4 | x8 | x8 |] %32
V:4
 x8 | x8 | [C,G,]4 z4 | F,4 z4 | x8 | x8 | x8 | x8 | x8 | x8 | A,,4[K:treble][K:bass] z4 | %11
 A,,4 z4 | x8 | x8 | x8 | x8 | x8 | x8 | x8 | C2 B,2 [F,A,]4 | x6[K:bass] x2 | x8 | x8 | x8 | x8 | %25
 x8 | z4[K:treble] F,4 | [F,F]2- [F,B,F]2 F,4 | x8 | x8 | x8 | x8 |] %32

